src/assets/diamonds_5.svg

<?xml version="1.0" encoding="UTF-8"?>
<svg xmlns="http://www.w3.org/2000/svg" xmlns:xlink="http://www.w3.org/1999/xlink" width="99px" height="140px" viewBox="0 0 99 140" version="1.1">
<g id="surface1">
<path style="fill-rule:nonzero;fill:rgb(100%,100%,100%);fill-opacity:1;stroke-width:0.755906;stroke-linecap:butt;stroke-linejoin:miter;stroke:rgb(50.196078%,50.196078%,50.196078%);stroke-opacity:1;stroke-miterlimit:4;" d="M 9.297585 719.743103 L 224.702415 719.743103 C 229.632812 719.743103 233.621449 723.747651 233.621449 728.681329 L 233.621449 1043.042991 C 233.621449 1047.976669 229.632812 1051.981217 224.702415 1051.981217 L 9.297585 1051.981217 C 4.367188 1051.981217 0.378551 1047.976669 0.378551 1043.042991 L 0.378551 728.681329 C 0.378551 723.747651 4.367188 719.743103 9.297585 719.743103 Z M 9.297585 719.743103 " transform="matrix(0.423077,0,0,0.42042,0,-302.434542)"/>
<path style=" stroke:none;fill-rule:nonzero;fill:rgb(100%,0%,0%);fill-opacity:1;" d="M 24.804688 39.820312 L 36.753906 27.90625 L 24.804688 15.992188 L 12.855469 27.90625 Z M 24.804688 39.820312 "/>
<path style=" stroke:none;fill-rule:nonzero;fill:rgb(100%,0%,0%);fill-opacity:1;" d="M 24.804688 124.007812 L 36.753906 112.09375 L 24.804688 100.179688 L 12.855469 112.09375 Z M 24.804688 124.007812 "/>
<path style=" stroke:none;fill-rule:nonzero;fill:rgb(100%,0%,0%);fill-opacity:1;" d="M 74.195312 39.820312 L 86.144531 27.90625 L 74.195312 15.992188 L 62.246094 27.90625 Z M 74.195312 39.820312 "/>
<path style=" stroke:none;fill-rule:nonzero;fill:rgb(100%,0%,0%);fill-opacity:1;" d="M 74.195312 124.007812 L 86.144531 112.09375 L 74.195312 100.179688 L 62.246094 112.09375 Z M 74.195312 124.007812 "/>
<path style=" stroke:none;fill-rule:nonzero;fill:rgb(100%,0%,0%);fill-opacity:1;" d="M 49.5 81.914062 L 61.449219 70 L 49.5 58.085938 L 37.550781 70 Z M 49.5 81.914062 "/>
<path style=" stroke:none;fill-rule:nonzero;fill:rgb(100%,0%,0%);fill-opacity:1;" d="M 7.277344 25.789062 L 11.261719 21.816406 L 7.277344 17.847656 L 3.296875 21.816406 Z M 7.277344 25.789062 "/>
<path style=" stroke:none;fill-rule:nonzero;fill:rgb(100%,0%,0%);fill-opacity:1;" d="M 91.722656 114.210938 L 95.703125 118.183594 L 91.722656 122.152344 L 87.738281 118.183594 Z M 91.722656 114.210938 "/>
<path style=" stroke:none;fill-rule:nonzero;fill:rgb(100%,0%,0%);fill-opacity:1;" d="M 11.261719 11.179688 C 11.261719 12.410156 10.890625 13.386719 10.148438 14.113281 C 9.410156 14.835938 8.425781 15.199219 7.203125 15.199219 C 6.027344 15.199219 5.09375 14.910156 4.410156 14.335938 C 3.667969 13.71875 3.296875 12.832031 3.296875 11.675781 C 3.296875 11.488281 3.445312 11.394531 3.738281 11.394531 L 4.8125 11.394531 C 4.929688 11.394531 5.035156 11.410156 5.132812 11.445312 C 5.167969 11.5 5.1875 11.570312 5.199219 11.660156 C 5.292969 12.277344 5.46875 12.722656 5.734375 12.992188 C 6.027344 13.292969 6.480469 13.445312 7.09375 13.445312 C 7.707031 13.445312 8.203125 13.230469 8.578125 12.792969 C 8.933594 12.382812 9.113281 11.867188 9.113281 11.246094 C 9.113281 9.714844 8.480469 8.949219 7.21875 8.949219 C 6.757812 8.949219 6.296875 9.109375 5.832031 9.425781 L 4.476562 9.425781 C 4.351562 9.425781 4.230469 9.410156 4.117188 9.378906 C 4.0625 9.324219 4.035156 9.261719 4.035156 9.1875 C 4.035156 8.410156 4.074219 7.425781 4.15625 6.242188 C 4.230469 5.253906 4.300781 4.269531 4.371094 3.285156 L 10.523438 3.285156 C 10.667969 3.285156 10.792969 3.308594 10.910156 3.351562 C 10.957031 3.460938 10.984375 3.84375 10.984375 4.503906 C 10.984375 4.613281 10.976562 4.703125 10.96875 4.777344 C 10.929688 4.953125 10.769531 5.039062 10.492188 5.039062 L 6.035156 5.039062 C 6.054688 5.335938 6.027344 5.789062 5.960938 6.398438 C 5.898438 7 5.871094 7.453125 5.890625 7.746094 C 6.453125 7.398438 7.039062 7.222656 7.652344 7.222656 C 8.777344 7.222656 9.671875 7.605469 10.328125 8.375 C 10.949219 9.097656 11.261719 10.035156 11.261719 11.179688 Z M 11.261719 11.179688 "/>
<path style=" stroke:none;fill-rule:nonzero;fill:rgb(100%,0%,0%);fill-opacity:1;" d="M 87.738281 128.820312 C 87.738281 127.589844 88.109375 126.613281 88.851562 125.886719 C 89.589844 125.164062 90.574219 124.800781 91.796875 124.800781 C 92.972656 124.800781 93.90625 125.089844 94.589844 125.664062 C 95.332031 126.28125 95.703125 127.167969 95.703125 128.324219 C 95.703125 128.511719 95.554688 128.605469 95.261719 128.605469 L 94.1875 128.605469 C 94.070312 128.605469 93.964844 128.589844 93.867188 128.554688 C 93.832031 128.5 93.8125 128.429688 93.800781 128.339844 C 93.707031 127.722656 93.53125 127.277344 93.265625 127.007812 C 92.972656 126.707031 92.519531 126.554688 91.90625 126.554688 C 91.292969 126.554688 90.796875 126.769531 90.421875 127.203125 C 90.066406 127.617188 89.886719 128.132812 89.886719 128.753906 C 89.886719 130.285156 90.519531 131.050781 91.78125 131.050781 C 92.242188 131.050781 92.703125 130.890625 93.167969 130.574219 L 94.523438 130.574219 C 94.648438 130.574219 94.769531 130.589844 94.882812 130.621094 C 94.9375 130.675781 94.964844 130.738281 94.964844 130.8125 C 94.964844 131.589844 94.925781 132.574219 94.84375 133.757812 C 94.769531 134.746094 94.699219 135.730469 94.628906 136.714844 L 88.476562 136.714844 C 88.332031 136.714844 88.207031 136.691406 88.089844 136.648438 C 88.042969 136.539062 88.015625 136.15625 88.015625 135.496094 C 88.015625 135.386719 88.023438 135.296875 88.03125 135.222656 C 88.070312 135.046875 88.230469 134.960938 88.507812 134.960938 L 92.964844 134.960938 C 92.945312 134.664062 92.972656 134.210938 93.039062 133.601562 C 93.101562 133 93.128906 132.546875 93.113281 132.25 C 92.546875 132.601562 91.960938 132.777344 91.347656 132.777344 C 90.222656 132.777344 89.328125 132.394531 88.671875 131.625 C 88.050781 130.902344 87.738281 129.964844 87.738281 128.820312 Z M 87.738281 128.820312 "/>
</g>
</svg>

<svg xmlns="http://www.w3.org/2000/svg" width="99" height="140"><path d="M9.298 719.743h215.404c4.93 0 8.92 4.005 8.92 8.938v314.362c0 4.934-3.99 8.938-8.92 8.938H9.298c-4.93 0-8.92-4.004-8.92-8.938V728.681c0-4.933 3.99-8.938 8.92-8.938Zm0 0" style="fill-rule:nonzero;fill:#fff;fill-opacity:1;stroke-width:.755906;stroke-linecap:butt;stroke-linejoin:miter;stroke:gray;stroke-opacity:1;stroke-miterlimit:4" transform="matrix(.42308 0 0 .42042 0 -302.435)"/><path d="m24.805 39.82 11.949-11.914-11.95-11.914-11.949 11.914ZM24.805 124.008l11.949-11.914-11.95-11.914-11.949 11.914ZM74.195 39.82l11.95-11.914-11.95-11.914-11.949 11.914ZM74.195 124.008l11.95-11.914-11.95-11.914-11.949 11.914ZM49.5 81.914 61.45 70 49.5 58.086 37.55 70ZM7.277 25.79l3.985-3.974-3.985-3.968-3.98 3.968ZM91.723 114.21l3.98 3.974-3.98 3.968-3.985-3.968ZM11.262 11.18c0 1.23-.371 2.207-1.114 2.933-.738.723-1.722 1.086-2.945 1.086-1.176 0-2.11-.289-2.793-.863-.742-.617-1.113-1.504-1.113-2.66 0-.188.148-.281.441-.281h1.075c.117 0 .222.015.32.05a.516.516 0 0 1 .066.215c.094.617.27 1.063.535 1.332.293.301.746.453 1.36.453.613 0 1.11-.215 1.484-.652.356-.41.535-.926.535-1.547 0-1.531-.633-2.297-1.894-2.297-.461 0-.922.16-1.387.477H4.477c-.125 0-.247-.016-.36-.047a.26.26 0 0 1-.082-.191c0-.778.04-1.762.121-2.946.074-.988.145-1.972.215-2.957h6.152c.145 0 .27.024.387.067.047.109.074.492.074 1.152 0 .11-.007.2-.015.273-.04.176-.2.262-.477.262H6.035c.02.297-.008.75-.074 1.36-.063.601-.09 1.054-.07 1.347.562-.348 1.148-.523 1.761-.523 1.125 0 2.02.382 2.676 1.152.621.723.934 1.66.934 2.805ZM87.738 128.82c0-1.23.371-2.207 1.114-2.933.738-.723 1.722-1.086 2.945-1.086 1.176 0 2.11.289 2.793.863.742.617 1.113 1.504 1.113 2.66 0 .188-.148.281-.441.281h-1.075a.934.934 0 0 1-.32-.05.516.516 0 0 1-.066-.215c-.094-.617-.27-1.063-.535-1.332-.293-.301-.746-.453-1.36-.453-.613 0-1.11.215-1.484.648-.356.414-.535.93-.535 1.55 0 1.532.633 2.298 1.894 2.298.461 0 .922-.16 1.387-.477h1.355c.125 0 .247.016.36.047a.26.26 0 0 1 .082.191c0 .778-.04 1.762-.121 2.946-.074.988-.145 1.972-.215 2.957h-6.152a1.1 1.1 0 0 1-.387-.067c-.047-.109-.074-.492-.074-1.152 0-.11.007-.2.015-.273.04-.176.2-.262.477-.262h4.457c-.02-.297.008-.75.074-1.36.063-.601.09-1.054.074-1.351-.566.352-1.152.527-1.765.527-1.125 0-2.02-.382-2.676-1.152-.621-.723-.934-1.66-.934-2.805Zm0 0" style="stroke:none;fill-rule:nonzero;fill:red;fill-opacity:1"/></svg>
